Yaru++/apps/16/httrack.svg

<svg height="16" viewBox="0 0 16 16" width="16" xmlns="http://www.w3.org/2000/svg">
  <g fill="#808080">
    <path d="m3.804 15.402c.036.003.067.007.103.009.028.002.067.001.096.002l-.003-.494 1.733-1.592v-.531l.8-.797v-.398l.4-.398v-1.061l-.533-.531h-1.067l-.533-.531h-1.333l-.534.531v1.327l1.071.933-.004 1.19-.4.398v1.725zm2.329-10.303-.4.398h.4l.134.133h.133l.133-.133zm5.067 1.858h-1.6l-.933.929v1.327l.666.663h.934l.4.398v.398l.266.266v1.592l1.013 1.066 1.672-1.665-.018-1.524 1.333-1.327h-.533l-1.333-1.327v-.531h-1.6zm4.8.53v-1.397c0-.602-.011-1.14-.039-1.619-.014-.24-.033-.465-.057-.677s-.053-.41-.088-.596c-.035-.185-.076-.358-.124-.518-.049-.161-.104-.31-.166-.448-.04-.087-.089-.163-.136-.242l-.19.189h-.8l-.8.797-.533-.531h-1.6l-.8.796v.663h.8v-.398h.533v.531l-.267.265-1.066.018-.4.381h-.534v.53l-.4.399v.796h.8l.534-.531h.533v.265l.533.531h.267v-.265l-.533-.531h.533l.533.531h.667l-.4-.398.4-.398h.4l.4.398h-.4l-.4.398.393.391.007.405h-.533l1.6 1.593h.266l.267-.266.533-.531-.533-.531zm-6.133-3.052v-.398l.4-.398v.796zm4.133 7.83v-.832l.533-.495v1.327zm-5.467-11.678h-2.998c-.051 0-.087.003-.138.003l-.464.528.8.796v.832l.934 1.026h.533v-.531l.8-.796v-.531l.533-.531zm-.666 2.919h.4l.4.398h-.8zm-3.6 4.38h-.4l-.4.398h.8zm-3.557-6.062c-.007.01-.016.018-.023.028-.079.116-.15.243-.213.38-.062.138-.117.287-.166.448-.048.16-.089.333-.124.518-.035.186-.064.384-.088.596s-.043.437-.057.677c-.028.479-.039 1.017-.039 1.619v1.397l.533.531h.8l1.334 1.327v-1.592l.8-.796h.533l.8-.797h.8l-.4-.398.8-.929-.8-.796h-1.2v1.062h-.533l-.534-.531v-.531l.8-.796h.667v-.531l-.8-.796h-1.333v.796h-.667zm3.29-1.2c-.028.001-.065 0-.093.002-.241.014-.468.032-.681.056s-.412.052-.599.087c-.166.032-.319.07-.466.111l.506.503h1.333z" fill-rule="evenodd" opacity=".4"/>
    <path d="m12.485 7.522h-2.477v-6.022h-4.015v6.022h-2.478l4.485 6.978z"/>
  </g>
</svg>

<svg xmlns="http://www.w3.org/2000/svg" style="isolation:isolate" width="16" height="16" viewBox="0 0 16 16">
 <defs>
  <style id="current-color-scheme" type="text/css">
   .ColorScheme-Text { color: #808080; } .ColorScheme-Highlight { color: #5294e2; }
  </style>
 </defs>
  <path fill="currentColor" class="ColorScheme-Text" opacity="0.4" fill-rule="evenodd" d="M 3.804 15.402 C 3.84 15.405 3.871 15.409 3.907 15.411 C 3.935 15.413 3.974 15.412 4.003 15.413 L 4 14.919 L 5.733 13.327 L 5.733 12.796 L 6.533 11.999 L 6.533 11.601 L 6.933 11.203 L 6.933 10.142 L 6.4 9.611 L 5.333 9.611 L 4.8 9.08 L 3.467 9.08 L 2.933 9.611 L 2.933 10.938 L 4.004 11.871 L 4 13.061 L 3.6 13.459 L 3.6 15.184 L 3.804 15.402 L 3.804 15.402 L 3.804 15.402 L 3.804 15.402 L 3.804 15.402 L 3.804 15.402 L 3.804 15.402 L 3.804 15.402 L 3.804 15.402 L 3.804 15.402 Z M 6.133 5.099 L 5.733 5.497 L 6.133 5.497 L 6.267 5.63 L 6.4 5.63 L 6.533 5.497 L 6.133 5.099 L 6.133 5.099 L 6.133 5.099 L 6.133 5.099 L 6.133 5.099 L 6.133 5.099 L 6.133 5.099 L 6.133 5.099 L 6.133 5.099 L 6.133 5.099 Z M 11.2 6.957 L 9.6 6.957 L 8.667 7.886 L 8.667 9.213 L 9.333 9.876 L 10.267 9.876 L 10.667 10.274 L 10.667 10.672 L 10.933 10.938 L 10.933 12.53 L 11.946 13.596 L 13.618 11.931 L 13.6 10.407 L 14.933 9.08 L 14.4 9.08 L 13.067 7.753 L 13.067 7.222 L 11.467 7.222 L 11.2 6.957 L 11.2 6.957 L 11.2 6.957 L 11.2 6.957 L 11.2 6.957 L 11.2 6.957 L 11.2 6.957 L 11.2 6.957 L 11.2 6.957 Z M 16 7.487 L 16 6.09 C 16 5.488 15.989 4.95 15.961 4.471 C 15.947 4.231 15.928 4.006 15.904 3.794 C 15.88 3.582 15.851 3.384 15.816 3.198 C 15.781 3.013 15.74 2.84 15.692 2.68 C 15.643 2.519 15.588 2.37 15.526 2.232 C 15.486 2.145 15.437 2.069 15.39 1.99 L 15.2 2.179 L 14.4 2.179 L 13.6 2.976 L 13.067 2.445 L 11.467 2.445 L 10.667 3.241 L 10.667 3.904 L 11.467 3.904 L 11.467 3.506 L 12 3.506 L 12 4.037 L 11.733 4.302 L 10.667 4.32 L 10.267 4.701 L 9.733 4.701 L 9.733 5.231 L 9.333 5.63 L 9.333 6.426 L 10.133 6.426 L 10.667 5.895 L 11.2 5.895 L 11.2 6.16 L 11.733 6.691 L 12 6.691 L 12 6.426 L 11.467 5.895 L 12 5.895 L 12.533 6.426 L 13.2 6.426 L 12.8 6.028 L 13.2 5.63 L 13.6 5.63 L 14 6.028 L 13.6 6.028 L 13.2 6.426 L 13.593 6.817 L 13.6 7.222 L 13.067 7.222 L 14.667 8.815 L 14.933 8.815 L 15.2 8.549 L 15.733 8.018 L 15.2 7.487 L 16 7.487 L 16 7.487 L 16 7.487 L 16 7.487 L 16 7.487 L 16 7.487 L 16 7.487 L 16 7.487 Z M 9.867 4.435 L 9.867 4.037 L 10.267 3.639 L 10.267 4.435 L 9.867 4.435 L 9.867 4.435 L 9.867 4.435 L 9.867 4.435 L 9.867 4.435 L 9.867 4.435 L 9.867 4.435 Z M 14 12.265 L 14 11.433 L 14.533 10.938 L 14.533 12.265 L 14 12.265 L 14 12.265 L 14 12.265 L 14 12.265 L 14 12.265 L 14 12.265 Z M 8.533 0.587 L 5.535 0.587 C 5.484 0.587 5.448 0.59 5.397 0.59 L 4.933 1.118 L 5.733 1.914 L 5.733 2.746 L 6.667 3.772 L 7.2 3.772 L 7.2 3.241 L 8 2.445 L 8 1.914 L 8.533 1.383 L 8.533 0.587 L 8.533 0.587 L 8.533 0.587 L 8.533 0.587 L 8.533 0.587 Z M 7.867 3.506 L 8.267 3.506 L 8.667 3.904 L 7.867 3.904 L 7.867 3.506 L 7.867 3.506 L 7.867 3.506 L 7.867 3.506 Z M 4.267 7.886 L 3.867 7.886 L 3.467 8.284 L 4.267 8.284 L 4.267 7.886 L 4.267 7.886 L 4.267 7.886 Z M 0.71 1.824 C 0.703 1.834 0.694 1.842 0.687 1.852 C 0.608 1.968 0.537 2.095 0.474 2.232 C 0.412 2.37 0.357 2.519 0.308 2.68 C 0.26 2.84 0.219 3.013 0.184 3.198 C 0.149 3.384 0.12 3.582 0.096 3.794 C 0.072 4.006 0.053 4.231 0.039 4.471 C 0.011 4.95 0 5.488 0 6.09 L 0 7.487 L 0.533 8.018 L 1.333 8.018 L 2.667 9.345 L 2.667 7.753 L 3.467 6.957 L 4 6.957 L 4.8 6.16 L 5.6 6.16 L 5.2 5.762 L 6 4.833 L 5.2 4.037 L 4 4.037 L 4 5.099 L 3.467 5.099 L 2.933 4.568 L 2.933 4.037 L 3.733 3.241 L 4.4 3.241 L 4.4 2.71 L 3.6 1.914 L 2.267 1.914 L 2.267 2.71 L 1.6 2.71 L 0.71 1.824 L 0.71 1.824 Z M 4 0.624 C 3.972 0.625 3.935 0.624 3.907 0.626 C 3.666 0.64 3.439 0.658 3.226 0.682 C 3.013 0.706 2.814 0.734 2.627 0.769 C 2.461 0.801 2.308 0.839 2.161 0.88 L 2.667 1.383 L 4 1.383 L 4 0.624 Z"/>
  <path fill="currentColor" class="ColorScheme-Text" d="M 12.485 7.522 L 10.008 7.522 L 10.008 1.5 L 5.993 1.5 L 5.993 7.522 L 3.515 7.522 L 8 14.5 L 12.485 7.522 Z"/>
</svg>
